X: 10882
Q: "Not too fast."
M: 6/8
L: 1/8
K: Bb
(c>d)B c>ed | e2z z2g |\
f>ed gec | (B2A) z2B/d/ |\
c>dB ccd | e2z (ce)g |\
f>bf (f/e/)(d/c/)(B/A/) | B2z z2 H|]\
c |\
d>ec d>ec | f2z f2g |
eed eed | (d2c) zFF |\
d>ed ccd | e3 (ce)g |\
f>bf (f/e/)(d/c/)(B/A/) | B2z z2 |]\
{f}=e>fd ccB | (B2A) c3 |\
dBf {f}=e>dc | (c2d) d3 |\
=edg {g}f>ef | (f2=e) zcc |\
f>gf AAB | c2z z2c |\
d>=ef f(a/f/)(g/=e/) | Hf2z f2"^D.C."d |]


